X:416
T: Zhouzongli zuoke daowojia
N: C2034
O: China,Anhui Feixi
S: III, 518, 2)]
R: Xiaodiao, Zhuanggong diao]
M: 2/4
L: 1/16
K: G
e2g2e2d2 | e2g2d4 | B2g2e2B2 | d8 |
B2Bde2g2 | d2B2A2G2 | B2BdA2E2 | G8 |
B2BAG2GA | B2BAB4 | B2BdA2E2 | G8 |
B2BAG2GA | BB2AB4 | B2BdA2E2 | G8

@@@ Tune index: 6971
